src/lib/packages/icons/src/assets/filled/star-magic.svg

<svg width="24" height="24" viewBox="0 0 24 24" fill="none" xmlns="http://www.w3.org/2000/svg">
<path d="M19.276 13.359L15.25 14.619C14.948 14.713 14.7119 14.95 14.6169 15.252L13.358 19.275C13.103 20.09 12.0249 20.262 11.5329 19.565L9.11398 16.138C8.93098 15.879 8.63191 15.727 8.31491 15.732L3.97495 15.797C3.17695 15.809 2.71496 14.901 3.19296 14.261L5.79892 10.773C5.98892 10.519 6.04201 10.1889 5.94101 9.88895L4.59799 5.90598C4.32599 5.09798 5.09798 4.32599 5.90598 4.59799L9.88791 5.94095C10.1879 6.04195 10.5179 5.98898 10.7719 5.79898L14.259 3.19296C14.899 2.71496 15.807 3.17695 15.795 3.97495L15.7299 8.31595C15.7249 8.63295 15.877 8.93196 16.136 9.11496L19.5649 11.536C20.2609 12.028 20.09 13.104 19.276 13.359ZM21.53 20.4699L18.53 17.4699C18.237 17.1769 17.762 17.1769 17.469 17.4699C17.176 17.7629 17.176 18.238 17.469 18.531L20.469 21.531C20.615 21.677 20.807 21.7509 20.999 21.7509C21.191 21.7509 21.383 21.678 21.529 21.531C21.823 21.238 21.823 20.7619 21.53 20.4699Z" fill="currentColor"/>
</svg>

<svg xmlns="http://www.w3.org/2000/svg" width="24" height="24" fill="none"><path fill="currentColor" d="m19.276 13.359-4.026 1.26a.965.965 0 0 0-.633.633l-1.259 4.023c-.255.815-1.333.987-1.825.29l-2.419-3.427a.96.96 0 0 0-.8-.406l-4.34.065a.96.96 0 0 1-.781-1.536l2.606-3.488a.962.962 0 0 0 .142-.884L4.598 5.906c-.272-.808.5-1.58 1.308-1.308l3.982 1.343c.3.101.63.048.884-.142l3.487-2.606a.96.96 0 0 1 1.536.782l-.065 4.341a.96.96 0 0 0 .406.799l3.429 2.421c.696.492.525 1.568-.289 1.823Zm2.254 7.11-3-3a.75.75 0 1 0-1.061 1.062l3 3a.748.748 0 0 0 1.06 0 .75.75 0 0 0 .001-1.061Z"/></svg>
